public/icons/icon/tool-hand.svg

<svg width="30" height="30" viewBox="0 0 30 30" fill="none" xmlns="http://www.w3.org/2000/svg">
<path d="M8.63587 16.0218C8.44552 15.2986 8.25517 14.4043 7.85544 13.0722C7.09942 10.5825 5.78137 8.27199 5.13345 5.74583C4.70752 3.93612 6.2521 2.10299 8.17903 2.77722C11.1279 3.81302 12.0474 8.88558 12.4619 11.4547L12.6142 12.311C12.4106 8.60372 12.1453 6.1853 12.6142 3.13878C13.0768 0.248065 17.5022 0.313862 17.8678 3.17684C18.0568 5.25596 18.0581 7.33084 18.0581 9.41852C18.0581 9.8562 18.0581 12.5013 18.0962 12.2159C18.2104 10.9599 18.2675 6.14545 18.7434 4.71823C19.7824 1.52792 23.6363 2.68984 23.8257 5.59359C23.9832 7.69327 23.7641 9.8847 23.7115 11.9875C23.7115 12.0636 23.6924 12.5584 23.7495 12.33C24.3238 10.544 23.8257 5.59359 26.9373 6.21128C27.9639 6.41508 29.8685 7.80123 28.4794 12.5C26.5191 19.131 23.9795 21.9981 23.9795 29H9.97947C9.97947 24 3.36858 20.1796 1.47943 16.4024C1.06067 15.6031 0.852976 14.5946 1.11946 13.8714C1.55727 12.7487 2.37339 12.1588 3.6868 12.292C5.8293 12.4979 6.69503 14.3244 8.63587 16.0218Z" stroke="black" stroke-width="2" stroke-linecap="round" stroke-linejoin="round"/>
</svg>

<svg xmlns="http://www.w3.org/2000/svg" width="30" height="30" fill="none"><path stroke="#000" stroke-linecap="round" stroke-linejoin="round" stroke-width="2" d="M8.636 16.022c-.19-.723-.38-1.618-.78-2.95-.757-2.49-2.075-4.8-2.723-7.326-.425-1.81 1.12-3.643 3.046-2.969 2.949 1.036 3.868 6.109 4.283 8.678l.152.856c-.203-3.707-.469-6.126 0-9.172.463-2.89 4.888-2.825 5.254.038.189 2.079.19 4.154.19 6.242 0 .437 0 3.082.038 2.797.114-1.256.171-6.07.647-7.498 1.04-3.19 4.893-2.028 5.083.876.157 2.1-.062 4.29-.114 6.394 0 .076-.02.57.038.342.574-1.786.076-6.736 3.187-6.119 1.027.204 2.931 1.59 1.542 6.289-1.96 6.631-4.5 9.498-4.5 16.5h-14c0-5-6.61-8.82-8.5-12.598-.418-.799-.626-1.807-.36-2.53.438-1.123 1.254-1.713 2.568-1.58 2.142.206 3.008 2.032 4.949 3.73Z"/></svg>
